svg/sprite/apple.svg

<svg width="21px" height="25px" viewBox="0 0 21 25" version="1.1" xmlns="http://www.w3.org/2000/svg" xmlns:xlink="http://www.w3.org/1999/xlink">
        <path d="M13.5706409,4.28899481 C15.1590916,2.1846492 14.8286085,0 14.8286085,0 C14.8286085,0 12.6051329,0.0113600191 11.0060215,2.33467979 C9.58387835,4.4010281 9.94598825,6.16809866 9.94598825,6.16809866 C9.94598825,6.16809866 11.8741613,6.53592825 13.5706409,4.28899481"/>
        <path d="M16.535668,13.268553 C16.535668,9.98815519 19.1638349,8.63622716 19.1638349,8.63622716 C19.1638349,8.63622716 17.8199504,6.19047619 14.4045397,6.19047619 C12.420288,6.19047619 10.8961782,7.32678116 10.0745213,7.32678116 C9.11769547,7.32678116 7.68972954,6.25866163 5.84916129,6.25866163 C3.01806363,6.25866163 0,8.8093682 0,13.6719538 C0,18.6137916 3.56583491,24.7619048 6.38841799,24.7619048 C7.37362578,24.7619048 8.88638273,23.7633986 10.4108472,23.7633986 C11.906575,23.7633986 13.0102774,24.7262056 14.4300835,24.7262056 C17.5208758,24.7262056 19.8095238,18.2446621 19.8095238,18.2446621 C19.8095238,18.2446621 16.535668,16.9694873 16.535668,13.268553"/>
</svg>

<svg width="21" height="25" viewBox="0 0 21 25" xmlns="http://www.w3.org/2000/svg"><path d="M13.57 4.289C15.16 2.185 14.83 0 14.83 0s-2.224.011-3.823 2.335C9.584 4.4 9.946 6.168 9.946 6.168s1.928.368 3.625-1.879"/><path d="M16.536 13.269c0-3.28 2.628-4.633 2.628-4.633S17.82 6.19 14.404 6.19c-1.984 0-3.508 1.137-4.33 1.137-.956 0-2.384-1.068-4.225-1.068C3.02 6.259 0 8.809 0 13.672c0 4.942 3.566 11.09 6.388 11.09.986 0 2.498-.999 4.023-.999 1.496 0 2.6.963 4.02.963 3.09 0 5.379-6.481 5.379-6.481s-3.274-1.276-3.274-4.976"/></svg>
